; generated by PrusaSlicer 2.5.0+MacOS-x64 on 2022-11-19 at 02:33:46 UTC

; 

; external perimeters extrusion width = 0.45mm
; perimeters extrusion width = 0.45mm
; infill extrusion width = 0.45mm
; solid infill extrusion width = 0.45mm
; top infill extrusion width = 0.40mm
; first layer extrusion width = 0.42mm

; external perimeters extrusion width = 0.45mm
; perimeters extrusion width = 0.45mm
; infill extrusion width = 0.45mm
; solid infill extrusion width = 0.45mm
; top infill extrusion width = 0.40mm
; first layer extrusion width = 0.42mm

; external perimeters extrusion width = 0.45mm
; perimeters extrusion width = 0.45mm
; infill extrusion width = 0.45mm
; solid infill extrusion width = 0.45mm
; top infill extrusion width = 0.40mm
; first layer extrusion width = 0.42mm

M73 P0 R114
M73 Q0 S115
M107
;TYPE:Custom
M862.3 P "MK3S" ; printer model check
M862.1 P0.4 ; nozzle diameter check
M115 U3.10.0 ; tell printer latest fw version
G90 ; use absolute coordinates
M83 ; extruder relative mode
M104 S215 ; set extruder temp
M140 S60 ; set bed temp
M190 S60 ; wait for bed temp
M109 S215 ; wait for extruder temp
G28 W ; home all without mesh bed level
G80 ; mesh bed leveling
G1 Z0.2 F720
G1 Y-3 F1000 ; go outside print area
G92 E0
G1 X60 E9 F1000 ; intro line
G1 X100 E12.5 F1000 ; intro line
G92 E0
M221 S95

; Don't change E values below. Excessive value can damage the printer.
M907 E430 ; set extruder motor current
G21 ; set units to millimeters
G90 ; use absolute coordinates
M83 ; use relative distances for extrusion
M900 K0.05 ; Filament gcode LA 1.5
M900 K30 ; Filament gcode LA 1.0
M107
;LAYER_CHANGE
;Z:0.2
;HEIGHT:0.2
;BEFORE_LAYER_CHANGE
G92 E0.0
;0.2


G1 E-.8 F2100
G1 Z.4 F720
;AFTER_LAYER_CHANGE
;0.2
G1 X92.504 Y83.29 F10800
G1 Z.2 F720
G1 E.8 F2100
M204 S800
;TYPE:Skirt/Brim
;WIDTH:0.42
G1 F1200
G1 X93.516 Y82.375 E.04278
G1 X94.538 Y82.144 E.03282
G1 X130.538 Y82.144 E1.12875
G1 X131.845 Y82.536 E.04278
G1 X132.482 Y83.154 E.02784
G1 X156.095 Y116.733 E1.28712
G1 X156.528 Y118.101 E.04497
G1 X156.528 Y145.601 E.86225
G1 X156.136 Y146.908 E.04278
G1 X155.091 Y147.784 E.04278
G1 X154.151 Y147.978 E.03008
G1 X118.124 Y147.978 E1.12961
G1 X74.473 Y147.479 E1.36874
G1 X73.17 Y147.073 E.04278
G1 X72.306 Y146.017 E.04278
G1 X72.123 Y145.103 E.02925
G1 X72.123 Y117.602 E.86225
G1 X72.466 Y116.371 E.04009
G1 X92.473 Y83.341 E1.21079
M204 S1000
; printing object Back Cover.stl id:1 copy 0
;WIPE_START
G1 F8640
G1 X93.516 Y82.375 E-.32835
G1 X94.538 Y82.144 E-.2417
G1 X95.36 Y82.144 E-.18995
;WIPE_END
G1 E-.04 F2100
G1 Z.6 F720
G1 X119.338 Y118.888 F10800
G1 Z.2 F720
G1 E.8 F2100
M204 S800
;TYPE:Perimeter
;WIDTH:0.419999
G1 F1200
G1 X152.964 Y118.888 E1.05431
G1 X152.964 Y144.814 E.81289
G1 X119.338 Y144.814 E1.05431
G1 X119.338 Y118.948 E.81101
M204 S1000
G1 X118.961 Y118.511 F10800
M204 S800
;TYPE:External perimeter
G1 F1200
G1 X153.341 Y118.511 E1.07796
G1 X153.341 Y145.191 E.83654
G1 X118.961 Y145.191 E1.07796
G1 X118.961 Y118.571 E.83466
M204 S1000
G1 X119.351 Y118.598 F10800
;WIPE_START
M73 P0 R113
G1 F8640
G1 X122.252 Y118.565 E-.76
;WIPE_END
G1 E-.04 F2100
G1 Z.6 F720
G1 X152.081 Y119.001 F10800
G1 Z.2 F720
G1 E.8 F2100
M204 S800
;TYPE:Solid infill
;WIDTH:0.42331
G1 F1200
G1 X152.681 Y119.6 E.02682
G1 X152.681 Y120.138 E.01702
G1 X151.713 Y119.171 E.04329
G1 X151.175 Y119.171 E.01702
G1 X152.681 Y120.676 E.06736
G1 X152.681 Y121.214 E.01702
G1 X150.637 Y119.171 E.09142
G1 X150.099 Y119.171 E.01702
G1 X152.681 Y121.752 E.11548
G1 X152.681 Y122.29 E.01702
G1 X149.561 Y119.171 E.13955
G1 X149.023 Y119.171 E.01702
G1 X152.681 Y122.828 E.16361
G1 X152.681 Y123.366 E.01702
G1 X148.485 Y119.171 E.18767
G1 X147.948 Y119.171 E.01702
G1 X152.681 Y123.904 E.21174
G1 X152.681 Y124.442 E.01702
G1 X147.41 Y119.171 E.2358
G1 X146.872 Y119.171 E.01702
G1 X152.681 Y124.98 E.25986
G1 X152.681 Y125.518 E.01702
G1 X146.334 Y119.171 E.28393
G1 X145.796 Y119.171 E.01702
G1 X152.681 Y126.056 E.30799
G1 X152.681 Y126.594 E.01702
G1 X145.258 Y119.171 E.33205
G1 X144.72 Y119.171 E.01702
G1 X152.681 Y127.132 E.35611
G1 X152.681 Y127.67 E.01702
G1 X144.182 Y119.171 E.38018
G1 X143.644 Y119.171 E.01702
M73 Q0 S114
G1 X152.681 Y128.208 E.40424
G1 X152.681 Y128.746 E.01702
G1 X143.106 Y119.171 E.4283
G1 X142.568 Y119.171 E.01702
G1 X152.681 Y129.284 E.45237
G1 X152.681 Y129.822 E.01702
G1 X142.03 Y119.171 E.47643
G1 X141.492 Y119.171 E.01702
G1 X152.681 Y130.36 E.50049
G1 X152.681 Y130.897 E.01702
G1 X140.954 Y119.171 E.52456
G1 X140.416 Y119.171 E.01702
G1 X152.681 Y131.435 E.54862
G1 X152.681 Y131.973 E.01702
G1 X139.878 Y119.171 E.57268
G1 X139.34 Y119.171 E.01702
G1 X152.681 Y132.511 E.59675
G1 X152.681 Y133.049 E.01702
G1 X138.802 Y119.171 E.62081
G1 X138.264 Y119.171 E.01702
G1 X152.681 Y133.587 E.64487
G1 X152.681 Y134.125 E.01702
G1 X137.726 Y119.171 E.66894
G1 X137.188 Y119.171 E.01702
G1 X152.681 Y134.663 E.693
G1 X152.681 Y135.201 E.01702
G1 X136.65 Y119.171 E.71706
G1 X136.113 Y119.171 E.01702
G1 X152.681 Y135.739 E.74112
G1 X152.681 Y136.277 E.01702
G1 X135.575 Y119.171 E.76519
G1 X135.037 Y119.171 E.01702
G1 X152.681 Y136.815 E.78925
G1 X152.681 Y137.353 E.01702
G1 X134.499 Y119.171 E.81331
G1 X133.961 Y119.171 E.01702
G1 X152.681 Y137.891 E.83738
G1 X152.681 Y138.429 E.01702
G1 X133.423 Y119.171 E.86144
G1 X132.885 Y119.171 E.01702
G1 X152.681 Y138.967 E.8855
G1 X152.681 Y139.505 E.01702
G1 X132.347 Y119.171 E.90957
G1 X131.809 Y119.171 E.01702
G1 X152.681 Y140.043 E.93363
G1 X152.681 Y140.581 E.01702
G1 X131.271 Y119.171 E.95769
G1 X130.733 Y119.171 E.01702
G1 X152.681 Y141.119 E.98176
G1 X152.681 Y141.657 E.01702
G1 X130.195 Y119.171 E1.00582
G1 X129.657 Y119.171 E.01702
M73 P1 R113
M73 Q1 S114
G1 X152.681 Y142.194 E1.02988
G1 X152.681 Y142.732 E.01702
G1 X129.119 Y119.171 E1.05395
G1 X128.581 Y119.171 E.01702
G1 X152.681 Y143.27 E1.07801
G1 X152.681 Y143.808 E.01702
G1 X128.043 Y119.171 E1.10207
G1 X127.505 Y119.171 E.01702
G1 X152.681 Y144.346 E1.12613
G1 X152.681 Y144.531 E.00584
G1 X152.328 Y144.531 E.01117
G1 X126.967 Y119.171 E1.1344
G1 X126.429 Y119.171 E.01702
G1 X151.79 Y144.531 E1.1344
G1 X151.252 Y144.531 E.01702
G1 X125.891 Y119.171 E1.1344
G1 X125.353 Y119.171 E.01702
G1 X150.714 Y144.531 E1.1344
G1 X150.176 Y144.531 E.01702
G1 X124.816 Y119.171 E1.1344
G1 X124.278 Y119.171 E.01702
G1 X149.638 Y144.531 E1.1344
G1 X149.1 Y144.531 E.01702
G1 X123.74 Y119.171 E1.1344
G1 X123.202 Y119.171 E.01702
G1 X148.562 Y144.531 E1.1344
G1 X148.024 Y144.531 E.01702
G1 X122.664 Y119.171 E1.1344
M73 P1 R112
G1 X122.126 Y119.171 E.01702
G1 X147.486 Y144.531 E1.1344
G1 X146.948 Y144.531 E.01702
G1 X121.588 Y119.171 E1.1344
G1 X121.05 Y119.171 E.01702
G1 X146.41 Y144.531 E1.1344
G1 X145.872 Y144.531 E.01702
M73 Q1 S113
G1 X120.512 Y119.171 E1.1344
G1 X119.974 Y119.171 E.01702
G1 X145.334 Y144.531 E1.1344
G1 X144.796 Y144.531 E.01702
G1 X119.621 Y119.355 E1.12613
G1 X119.621 Y119.893 E.01702
G1 X144.259 Y144.531 E1.10207
G1 X143.721 Y144.531 E.01702
G1 X119.621 Y120.431 E1.07801
G1 X119.621 Y120.969 E.01702
G1 X143.183 Y144.531 E1.05394
G1 X142.645 Y144.531 E.01702
G1 X119.621 Y121.507 E1.02988
G1 X119.621 Y122.045 E.01702
G1 X142.107 Y144.531 E1.00582
G1 X141.569 Y144.531 E.01702
G1 X119.621 Y122.583 E.98175
G1 X119.621 Y123.121 E.01702
G1 X141.031 Y144.531 E.95769
G1 X140.493 Y144.531 E.01702
G1 X119.621 Y123.659 E.93363
G1 X119.621 Y124.197 E.01702
G1 X139.955 Y144.531 E.90956
G1 X139.417 Y144.531 E.01702
G1 X119.621 Y124.735 E.8855
G1 X119.621 Y125.273 E.01702
G1 X138.879 Y144.531 E.86144
G1 X138.341 Y144.531 E.01702
G1 X119.621 Y125.811 E.83737
G1 X119.621 Y126.349 E.01702
G1 X137.803 Y144.531 E.81331
G1 X137.265 Y144.531 E.01702
G1 X119.621 Y126.887 E.78925
G1 X119.621 Y127.425 E.01702
G1 X136.727 Y144.531 E.76519
G1 X136.189 Y144.531 E.01702
G1 X119.621 Y127.963 E.74112
G1 X119.621 Y128.501 E.01702
G1 X135.651 Y144.531 E.71706
G1 X135.113 Y144.531 E.01702
G1 X119.621 Y129.038 E.693
G1 X119.621 Y129.576 E.01702
G1 X134.575 Y144.531 E.66893
G1 X134.037 Y144.531 E.01702
G1 X119.621 Y130.114 E.64487
G1 X119.621 Y130.652 E.01702
G1 X133.499 Y144.531 E.62081
G1 X132.962 Y144.531 E.01702
G1 X119.621 Y131.19 E.59674
G1 X119.621 Y131.728 E.01702
G1 X132.424 Y144.531 E.57268
G1 X131.886 Y144.531 E.01702
G1 X119.621 Y132.266 E.54862
G1 X119.621 Y132.804 E.01702
M73 P2 R112
G1 X131.348 Y144.531 E.52455
G1 X130.81 Y144.531 E.01702
M73 Q2 S113
G1 X119.621 Y133.342 E.50049
G1 X119.621 Y133.88 E.01702
G1 X130.272 Y144.531 E.47643
G1 X129.734 Y144.531 E.01702
G1 X119.621 Y134.418 E.45236
G1 X119.621 Y134.956 E.01702
G1 X129.196 Y144.531 E.4283
G1 X128.658 Y144.531 E.01702
G1 X119.621 Y135.494 E.40424
G1 X119.621 Y136.032 E.01702
G1 X128.12 Y144.531 E.38018
G1 X127.582 Y144.531 E.01702
G1 X119.621 Y136.57 E.35611
G1 X119.621 Y137.108 E.01702
G1 X127.044 Y144.531 E.33205
G1 X126.506 Y144.531 E.01702
G1 X119.621 Y137.646 E.30799
G1 X119.621 Y138.184 E.01702
G1 X125.968 Y144.531 E.28392
G1 X125.43 Y144.531 E.01702
G1 X119.621 Y138.722 E.25986
G1 X119.621 Y139.26 E.01702
G1 X124.892 Y144.531 E.2358
G1 X124.354 Y144.531 E.01702
G1 X119.621 Y139.798 E.21173
G1 X119.621 Y140.335 E.01702
G1 X123.816 Y144.531 E.18767
G1 X123.278 Y144.531 E.01702
G1 X119.621 Y140.873 E.16361
G1 X119.621 Y141.411 E.01702
G1 X122.74 Y144.531 E.13954
G1 X122.202 Y144.531 E.01702
G1 X119.621 Y141.949 E.11548
G1 X119.621 Y142.487 E.01702
G1 X121.665 Y144.531 E.09142
G1 X121.127 Y144.531 E.01702
G1 X119.621 Y143.025 E.06735
G1 X119.621 Y143.563 E.01702
G1 X120.589 Y144.531 E.04329
G1 X120.051 Y144.531 E.01702
G1 X119.451 Y143.931 E.02682
M204 S1000
; stop printing object Back Cover.stl id:1 copy 0
; printing object Back Cover.stl id:0 copy 0
;WIPE_START
G1 F8640
G1 X120.051 Y144.531 E-.19578
G1 X120.589 Y144.531 E-.12421
G1 X119.621 Y143.563 E-.31604
G1 X119.621 Y143.026 E-.12397
;WIPE_END
G1 E-.04 F2100
G1 Z.6 F720
G1 X95.725 Y85.308 F10800
G1 Z.2 F720
G1 E.8 F2100
M204 S800
;TYPE:Perimeter
;WIDTH:0.419999
G1 F1200
G1 X129.35 Y85.308 E1.05431
G1 X129.35 Y111.234 E.81289
G1 X95.725 Y111.234 E1.05431
G1 X95.725 Y85.368 E.81101
M204 S1000
M73 P2 R111
G1 X95.348 Y84.931 F10800
M204 S800
;TYPE:External perimeter
G1 F1200
G1 X129.728 Y84.931 E1.07796
G1 X129.728 Y111.612 E.83654
G1 X95.348 Y111.612 E1.07796
G1 X95.348 Y84.991 E.83466
M204 S1000
M73 Q2 S112
G1 X95.738 Y85.019 F10800
;WIPE_START
G1 F8640
G1 X98.639 Y84.986 E-.76
;WIPE_END
G1 E-.04 F2100
G1 Z.6 F720
G1 X128.468 Y85.422 F10800
G1 Z.2 F720
G1 E.8 F2100
M204 S800
;TYPE:Solid infill
;WIDTH:0.42331
G1 F1200
G1 X129.068 Y86.021 E.02682
G1 X129.068 Y86.559 E.01702
G1 X128.1 Y85.591 E.04329
G1 X127.562 Y85.591 E.01702
G1 X129.068 Y87.097 E.06736
G1 X129.068 Y87.635 E.01702
G1 X127.024 Y85.591 E.09142
G1 X126.486 Y85.591 E.01702
G1 X129.068 Y88.173 E.11548
G1 X129.068 Y88.711 E.01702
G1 X125.948 Y85.591 E.13955
G1 X125.41 Y85.591 E.01702
G1 X129.068 Y89.249 E.16361
G1 X129.068 Y89.787 E.01702
G1 X124.872 Y85.591 E.18767
G1 X124.334 Y85.591 E.01702
G1 X129.068 Y90.325 E.21174
G1 X129.068 Y90.863 E.01702
G1 X123.796 Y85.591 E.2358
G1 X123.258 Y85.591 E.01702
G1 X129.068 Y91.401 E.25986
G1 X129.068 Y91.939 E.01702
G1 X122.72 Y85.591 E.28393
G1 X122.182 Y85.591 E.01702
G1 X129.068 Y92.477 E.30799
G1 X129.068 Y93.015 E.01702
G1 X121.644 Y85.591 E.33205
G1 X121.106 Y85.591 E.01702
G1 X129.068 Y93.552 E.35611
G1 X129.068 Y94.09 E.01702
G1 X120.568 Y85.591 E.38018
G1 X120.031 Y85.591 E.01702
G1 X129.068 Y94.628 E.40424
G1 X129.068 Y95.166 E.01702
G1 X119.493 Y85.591 E.4283
G1 X118.955 Y85.591 E.01702
G1 X129.068 Y95.704 E.45237
G1 X129.068 Y96.242 E.01702
G1 X118.417 Y85.591 E.47643
G1 X117.879 Y85.591 E.01702
G1 X129.068 Y96.78 E.50049
G1 X129.068 Y97.318 E.01702
G1 X117.341 Y85.591 E.52456
G1 X116.803 Y85.591 E.01702
G1 X129.068 Y97.856 E.54862
G1 X129.068 Y98.394 E.01702
G1 X116.265 Y85.591 E.57268
G1 X115.727 Y85.591 E.01702
G1 X129.068 Y98.932 E.59675
G1 X129.068 Y99.47 E.01702
G1 X115.189 Y85.591 E.62081
G1 X114.651 Y85.591 E.01702
G1 X129.068 Y100.008 E.64487
G1 X129.068 Y100.546 E.01702
G1 X114.113 Y85.591 E.66894
G1 X113.575 Y85.591 E.01702
G1 X129.068 Y101.084 E.693
G1 X129.068 Y101.622 E.01702
G1 X113.037 Y85.591 E.71706
G1 X112.499 Y85.591 E.01702
G1 X129.068 Y102.16 E.74112
G1 X129.068 Y102.698 E.01702
G1 X111.961 Y85.591 E.76519
G1 X111.423 Y85.591 E.01702
G1 X129.068 Y103.236 E.78925
G1 X129.068 Y103.774 E.01702
G1 X110.885 Y85.591 E.81331
G1 X110.347 Y85.591 E.01702
G1 X129.068 Y104.312 E.83738
G1 X129.068 Y104.849 E.01702
G1 X109.809 Y85.591 E.86144
G1 X109.271 Y85.591 E.01702
G1 X129.068 Y105.387 E.8855
G1 X129.068 Y105.925 E.01702
G1 X108.733 Y85.591 E.90957
G1 X108.196 Y85.591 E.01702
G1 X129.068 Y106.463 E.93363
G1 X129.068 Y107.001 E.01702
G1 X107.658 Y85.591 E.95769
G1 X107.12 Y85.591 E.01702
G1 X129.068 Y107.539 E.98176
G1 X129.068 Y108.077 E.01702
G1 X106.582 Y85.591 E1.00582
G1 X106.044 Y85.591 E.01702
G1 X129.068 Y108.615 E1.02988
G1 X129.068 Y109.153 E.01702
G1 X105.506 Y85.591 E1.05395
G1 X104.968 Y85.591 E.01702
G1 X129.068 Y109.691 E1.07801
G1 X129.068 Y110.229 E.01702
G1 X104.43 Y85.591 E1.10207
G1 X103.892 Y85.591 E.01702
G1 X129.068 Y110.767 E1.12613
G1 X129.068 Y110.952 E.00584
M73 P3 R111
G1 X128.714 Y110.952 E.01117
G1 X103.354 Y85.591 E1.1344
G1 X102.816 Y85.591 E.01702
M73 Q3 S112
G1 X128.176 Y110.952 E1.1344
G1 X127.639 Y110.952 E.01702
G1 X102.278 Y85.591 E1.1344
G1 X101.74 Y85.591 E.01702
G1 X127.101 Y110.952 E1.1344
G1 X126.563 Y110.952 E.01702
M73 P3 R110
G1 X101.202 Y85.591 E1.1344
G1 X100.664 Y85.591 E.01702
G1 X126.025 Y110.952 E1.1344
G1 X125.487 Y110.952 E.01702
G1 X100.126 Y85.591 E1.1344
G1 X99.588 Y85.591 E.01702
M73 Q3 S111
G1 X124.949 Y110.952 E1.1344
G1 X124.411 Y110.952 E.01702
G1 X99.05 Y85.591 E1.1344
G1 X98.512 Y85.591 E.01702
G1 X123.873 Y110.952 E1.1344
G1 X123.335 Y110.952 E.01702
G1 X97.974 Y85.591 E1.1344
G1 X97.436 Y85.591 E.01702
G1 X122.797 Y110.952 E1.1344
G1 X122.259 Y110.952 E.01702
G1 X96.899 Y85.591 E1.1344
G1 X96.361 Y85.591 E.01702
G1 X121.721 Y110.952 E1.1344
G1 X121.183 Y110.952 E.01702
G1 X96.007 Y85.776 E1.12613
G1 X96.007 Y86.314 E.01702
G1 X120.645 Y110.952 E1.10207
G1 X120.107 Y110.952 E.01702
G1 X96.007 Y86.852 E1.07801
G1 X96.007 Y87.39 E.01702
G1 X119.569 Y110.952 E1.05394
G1 X119.031 Y110.952 E.01702
G1 X96.007 Y87.928 E1.02988
G1 X96.007 Y88.466 E.01702
G1 X118.493 Y110.952 E1.00582
G1 X117.955 Y110.952 E.01702
G1 X96.007 Y89.004 E.98175
G1 X96.007 Y89.542 E.01702
G1 X117.417 Y110.952 E.95769
G1 X116.879 Y110.952 E.01702
G1 X96.007 Y90.08 E.93363
G1 X96.007 Y90.618 E.01702
G1 X116.342 Y110.952 E.90956
G1 X115.804 Y110.952 E.01702
G1 X96.007 Y91.156 E.8855
G1 X96.007 Y91.693 E.01702
G1 X115.266 Y110.952 E.86144
G1 X114.728 Y110.952 E.01702
G1 X96.007 Y92.231 E.83737
G1 X96.007 Y92.769 E.01702
G1 X114.19 Y110.952 E.81331
G1 X113.652 Y110.952 E.01702
G1 X96.007 Y93.307 E.78925
G1 X96.007 Y93.845 E.01702
G1 X113.114 Y110.952 E.76519
G1 X112.576 Y110.952 E.01702
G1 X96.007 Y94.383 E.74112
G1 X96.007 Y94.921 E.01702
G1 X112.038 Y110.952 E.71706
G1 X111.5 Y110.952 E.01702
G1 X96.007 Y95.459 E.693
G1 X96.007 Y95.997 E.01702
G1 X110.962 Y110.952 E.66893
G1 X110.424 Y110.952 E.01702
G1 X96.007 Y96.535 E.64487
G1 X96.007 Y97.073 E.01702
G1 X109.886 Y110.952 E.62081
G1 X109.348 Y110.952 E.01702
G1 X96.007 Y97.611 E.59674
G1 X96.007 Y98.149 E.01702
G1 X108.81 Y110.952 E.57268
G1 X108.272 Y110.952 E.01702
G1 X96.007 Y98.687 E.54862
G1 X96.007 Y99.225 E.01702
G1 X107.734 Y110.952 E.52455
G1 X107.196 Y110.952 E.01702
G1 X96.007 Y99.763 E.50049
G1 X96.007 Y100.301 E.01702
G1 X106.658 Y110.952 E.47643
G1 X106.12 Y110.952 E.01702
G1 X96.007 Y100.839 E.45236
G1 X96.007 Y101.377 E.01702
G1 X105.582 Y110.952 E.4283
G1 X105.045 Y110.952 E.01702
G1 X96.007 Y101.915 E.40424
G1 X96.007 Y102.453 E.01702
G1 X104.507 Y110.952 E.38018
G1 X103.969 Y110.952 E.01702
G1 X96.007 Y102.99 E.35611
G1 X96.007 Y103.528 E.01702
G1 X103.431 Y110.952 E.33205
G1 X102.893 Y110.952 E.01702
G1 X96.007 Y104.066 E.30799
G1 X96.007 Y104.604 E.01702
M73 P3 R109
